src/assets/img-parallax/earth-america.svg

<svg xmlns="http://www.w3.org/2000/svg" width="738.5" height="718.5"><path fill-rule="evenodd" stroke="#A2D5E8" fill="#81D3F2" d="M369 1.5c202.965 0 367.5 160.058 367.5 357.5S571.965 716.5 369 716.5 1.5 556.442 1.5 359 166.035 1.5 369 1.5z"/><path fill-rule="evenodd" stroke="#81A064" fill="#749D4E" d="M367.5 1.5c37.574-.355 67.447 5.891 98 10l1 1-2 20-5 5c-31.233.736-74.007-19.876-92-36zm-61 7h3c-6.678 14.272-23.165 23.48-18 43 6.415 4.48 13.747 10.068 25 7l7-3c24.142-12.064 45.654-37.856 80-17 6.934 4.21 10.668 5.288 9 13l-18 6 1 2 5 4v2c-11.538 4.467-30.665.442-43 6l-74 78-3 35c-13.381-9.286-5.258-32.57-23-38-31.97-8.741-108.143 55.513-56 71l19-8 5 3c1.888 8.795-2.105 13.397-5 20l2 2c8.834.953 22.158-.236 27 5 4.999 9.571-1.495 23.288 2 33 52.349 35.936 56.738-12.906 80-7 10.485 2.662 16.912 15.242 31 14l26-6 124 90c17.358 10.833 39.537 4.11 53 18 .333-1.333 3.667 3.333 4 2 2.333 3.666 1.667 1.334 4 5l-37 47c-5.42 14.577-1.607 33.129-10 44l-34 22c-20.203 16.5-32.268 41.354-51 59-13.561 7.362-24.312 15.851-37 24-1.649 1.059-4.039.81-6.386-.152-2.09-.856-4.146-2.279-5.614-3.848-2.21-2.363-2.061-8.374-4-8-1.579.305-1.562 3.503 0 8 .342.985.692.962 1 2 .486 1.639 1.039 4.493 1 6-.072 2.778-2.811 4.566-4 5-3.45 1.26-7.774 1.384-9 2-2.236 1.123-2.885 2.852-5 4-.863 1.041-2.001 5.236-2 9 .001 1.921 2.566 2.944 2 5-.353 1.282-2.681 1.005-4 2-1.421 1.072-4.924 3.708-4 5 .749 1.048 1.89 3.326 3 5 1.943 2.931 2.541 5.385 0 6-2.329.564-3.892 5.072-5 7-.373.649-2.627 8.685 9 24-11.548 5.944-10.821-.801-23-3-3.737-4.078-8.79-8.015-11-13-3.543-7.993-1.418-17.242-2-27-1.578-26.473.709-57.868 4-87 2.392-21.171 7.293-41.208 2-57-5.535-16.516-26.453-17.433-38-28-3.131-2.865-9.156-19.1-19-36-12.544-21.535-29.096-44.807-30-50 11.039-10.512 34.992-42.496 31-62-31.508-4.764-35.305-27.17-56-40l-38-10c-1.425 1.338-15.542-19.366-28.07-21.605-5.418-.968-14.589-7.863-14.93-8.395-9.625-15.018-.328-46.49-6-64h-7l-1 1c-4.9 10.626-6.668 28.214-7 43h-3l-1-1c-9.043-12.421-.313-34.377-1-51-1.708-41.319 31.162-79.542 73-103 50.644-28.395 112.089-37.594 111-36zm254 43c91.053 57.763 78.148 70.236 74 84l-3 2c-15.239.508-27.302-5.915-31-17-3.392-11.968 4.364-15.794 6-27-16.392-13.849-36.987-20.388-46-42zm84 86c5.577-.02 11.24-.663 15 1 3.86 1.708 5.784 5.765 9 9 11.455 11.52 18.792 30.658 26 44 17.357 32.13 31.857 72.842 38 116 8.528 59.911 2.639 124.678-19 179-5.272 13.235-9.214 33.23-20 41-1.149-7.148-3.072-14.824-2-23 5.358-40.881 35.673-92.959 38-139 .879-17.39.989-34.368-9-49-17.414-5.48-39.419.142-52-11-12.029-10.653-46.476-114.842-42-141 2.373-13.867 9.78-19.239 18-27zm-70 246zm-127 180zm4 10zm-56 73 1 2c-.368-.37-.036.392-1 1-1.499.945-5.88 4.974 0-3zm4 1h3c-.894 1.073-3.309 4.038-4 4-.554-.03.427-2.794 1-4zm-3 40 6 1-1 1c-9.106 4.988-18.05 7.408-20 20h3c24.492 7.753 49.069-1.531 75-2v1c-27.159 5.024-68.361 9.432-105 8-9.992-.391-17.039-.79-26-2-8.205-1.108-18.447-2.895-25-6 12.803 0 36.195 2 49 2 7.529 0 4.472-2 12-2v-3l-5-3c-.975.395 5.97-.15 13-3 8.092-3.281 16.909-9.125 24-12zm-130-490-5 1 6 2c.148-1.489 16.477 3.206 16 8l11 1-11-8-11-3-6-1zm32 19 9 1 8-1-6-4-3 1s-1.295-.955-4-1c-2.705-.045-5 1-5 1l3 1-3 1 1 1zm-16 0c.476.573.336.677 2 1 1.664.323 2.211-.323 2-1-.211-.677-4.476-.573-4 0z"/><path fill-rule="evenodd" fill="#96BEB2" d="m345.5 623.5-3 20 5 10 9 4 9 6 6-1-7-13-1-10 6-8 1-3-2-4-4-4 8-6v-5l-1-3 1-2 1-4 4-4h1l3-1 4-1 3-1 3-3 1-1v-4l-2-2v-2l-1-3-2-3v-4l4-8 6-4 9-9v-5l-10 6h-10l-1-10-15-4-7 1-5 2-3-3-6 1-2 10 1 14-4 20 3 12-4 12 3 9-1 8z"/></svg>

<svg 
 xmlns="http://www.w3.org/2000/svg"
 xmlns:xlink="http://www.w3.org/1999/xlink"
 width="738.5px" height="718.5px">
<path fill-rule="evenodd"  stroke="rgb(162, 213, 232)" stroke-width="1px" stroke-linecap="butt" stroke-linejoin="miter" fill="rgb(129, 211, 242)"
 d="M369.000,1.500 C571.965,1.500 736.500,161.558 736.500,359.000 C736.500,556.442 571.965,716.500 369.000,716.500 C166.035,716.500 1.500,556.442 1.500,359.000 C1.500,161.558 166.035,1.500 369.000,1.500 Z"/>
<path fill-rule="evenodd"  stroke="rgb(129, 160, 100)" stroke-width="1px" stroke-linecap="butt" stroke-linejoin="miter" fill="rgb(116, 157, 78)"
 d="M367.500,1.500 C405.074,1.145 434.947,7.391 465.500,11.500 C465.833,11.833 466.167,12.167 466.500,12.500 C465.833,19.166 465.167,25.834 464.500,32.500 C462.833,34.166 461.167,35.834 459.500,37.500 C428.267,38.236 385.493,17.624 367.500,1.500 ZM306.500,8.500 C307.500,8.500 308.500,8.500 309.500,8.500 C302.822,22.772 286.335,31.980 291.500,51.500 C297.915,55.980 305.247,61.568 316.500,58.500 C318.833,57.500 321.167,56.500 323.500,55.500 C347.642,43.436 369.154,17.644 403.500,38.500 C410.434,42.710 414.168,43.788 412.500,51.500 C406.501,53.500 400.499,55.500 394.500,57.500 C394.833,58.167 395.167,58.833 395.500,59.500 C397.167,60.833 398.834,62.167 400.500,63.500 C400.500,64.167 400.500,64.833 400.500,65.500 C388.962,69.967 369.835,65.942 357.500,71.500 C332.836,97.497 308.164,123.503 283.500,149.500 C282.500,161.165 281.500,172.835 280.500,184.500 C267.119,175.214 275.242,151.930 257.500,146.500 C225.530,137.759 149.357,202.013 201.500,217.500 C207.833,214.834 214.167,212.166 220.500,209.500 C222.166,210.500 223.834,211.500 225.500,212.500 C227.388,221.295 223.395,225.897 220.500,232.500 C221.167,233.167 221.833,233.833 222.500,234.500 C231.334,235.453 244.658,234.264 249.500,239.500 C254.499,249.071 248.005,262.788 251.500,272.500 C303.849,308.436 308.238,259.594 331.500,265.500 C341.985,268.162 348.412,280.742 362.500,279.500 C371.166,277.500 379.834,275.500 388.500,273.500 C429.829,303.497 471.171,333.503 512.500,363.500 C529.858,374.333 552.037,367.610 565.500,381.500 C565.833,380.167 569.167,384.833 569.500,383.500 C571.833,387.166 571.167,384.834 573.500,388.500 C561.168,404.165 548.832,419.835 536.500,435.500 C531.080,450.077 534.893,468.629 526.500,479.500 C515.168,486.833 503.832,494.167 492.500,501.500 C472.297,518.000 460.232,542.854 441.500,560.500 C427.939,567.862 417.188,576.351 404.500,584.500 C402.851,585.559 400.461,585.310 398.114,584.348 C396.024,583.492 393.968,582.069 392.500,580.500 C390.290,578.137 390.439,572.126 388.500,572.500 C386.921,572.805 386.938,576.003 388.500,580.500 C388.842,581.485 389.192,581.462 389.500,582.500 C389.986,584.139 390.539,586.993 390.500,588.500 C390.428,591.278 387.689,593.066 386.500,593.500 C383.050,594.760 378.726,594.884 377.500,595.500 C375.264,596.623 374.615,598.352 372.500,599.500 C371.637,600.541 370.499,604.736 370.500,608.500 C370.501,610.421 373.066,611.444 372.500,613.500 C372.147,614.782 369.819,614.505 368.500,615.500 C367.079,616.572 363.576,619.208 364.500,620.500 C365.249,621.548 366.390,623.826 367.500,625.500 C369.443,628.431 370.041,630.885 367.500,631.500 C365.171,632.064 363.608,636.572 362.500,638.500 C362.127,639.149 359.873,647.185 371.500,662.500 C359.952,668.444 360.679,661.699 348.500,659.500 C344.763,655.422 339.710,651.485 337.500,646.500 C333.957,638.507 336.082,629.258 335.500,619.500 C333.922,593.027 336.209,561.632 339.500,532.500 C341.892,511.329 346.793,491.292 341.500,475.500 C335.965,458.984 315.047,458.067 303.500,447.500 C300.369,444.635 294.344,428.400 284.500,411.500 C271.956,389.965 255.404,366.693 254.500,361.500 C265.539,350.988 289.492,319.004 285.500,299.500 C253.992,294.736 250.195,272.330 229.500,259.500 C216.835,256.167 204.165,252.833 191.500,249.500 C190.075,250.838 175.958,230.134 163.430,227.895 C158.012,226.927 148.841,220.032 148.500,219.500 C138.875,204.482 148.172,173.010 142.500,155.500 C140.167,155.500 137.833,155.500 135.500,155.500 C135.167,155.833 134.833,156.167 134.500,156.500 C129.600,167.126 127.832,184.714 127.500,199.500 C126.500,199.500 125.500,199.500 124.500,199.500 C124.167,199.167 123.833,198.833 123.500,198.500 C114.457,186.079 123.187,164.123 122.500,147.500 C120.792,106.181 153.662,67.958 195.500,44.500 C246.144,16.105 307.589,6.906 306.500,8.500 ZM560.500,51.500 C651.553,109.263 638.648,121.736 634.500,135.500 C633.500,136.167 632.500,136.833 631.500,137.500 C616.261,138.008 604.198,131.585 600.500,120.500 C597.108,108.532 604.864,104.706 606.500,93.500 C590.108,79.651 569.513,73.112 560.500,51.500 ZM644.500,137.500 C650.077,137.480 655.740,136.837 659.500,138.500 C663.360,140.208 665.284,144.265 668.500,147.500 C679.955,159.020 687.292,178.158 694.500,191.500 C711.857,223.630 726.357,264.342 732.500,307.500 C741.028,367.411 735.139,432.178 713.500,486.500 C708.228,499.735 704.286,519.730 693.500,527.500 C692.351,520.352 690.428,512.676 691.500,504.500 C696.858,463.619 727.173,411.541 729.500,365.500 C730.379,348.110 730.489,331.132 720.500,316.500 C703.086,311.020 681.081,316.642 668.500,305.500 C656.471,294.847 622.024,190.658 626.500,164.500 C628.873,150.633 636.280,145.261 644.500,137.500 ZM574.500,383.500 L574.500,383.500 ZM447.500,563.500 L447.500,563.500 ZM451.500,573.500 L451.500,573.500 ZM395.500,646.500 C395.833,647.167 396.167,647.833 396.500,648.500 C396.132,648.130 396.464,648.892 395.500,649.500 C394.001,650.445 389.620,654.474 395.500,646.500 ZM399.500,647.500 C400.500,647.500 401.500,647.500 402.500,647.500 C401.606,648.573 399.191,651.538 398.500,651.500 C397.946,651.470 398.927,648.706 399.500,647.500 ZM396.500,687.500 C398.500,687.833 400.500,688.167 402.500,688.500 C402.167,688.833 401.833,689.167 401.500,689.500 C392.394,694.488 383.450,696.908 381.500,709.500 C382.500,709.500 383.500,709.500 384.500,709.500 C408.992,717.253 433.569,707.969 459.500,707.500 C459.500,707.833 459.500,708.167 459.500,708.500 C432.341,713.524 391.139,717.932 354.500,716.500 C344.508,716.109 337.461,715.710 328.500,714.500 C320.295,713.392 310.053,711.605 303.500,708.500 C316.303,708.500 339.695,710.500 352.500,710.500 C360.029,710.500 356.972,708.500 364.500,708.500 C364.500,707.500 364.500,706.500 364.500,705.500 C362.834,704.500 361.166,703.500 359.500,702.500 C358.525,702.895 365.470,702.350 372.500,699.500 C380.592,696.219 389.409,690.375 396.500,687.500 ZM266.500,197.500 L261.500,198.500 L267.500,200.500 C267.648,199.011 283.977,203.706 283.500,208.500 L294.500,209.500 L283.500,201.500 L272.500,198.500 L266.500,197.500 ZM298.500,216.500 L307.500,217.500 L315.500,216.500 L309.500,212.500 L306.500,213.500 C306.500,213.500 305.205,212.545 302.500,212.500 C299.795,212.455 297.500,213.500 297.500,213.500 L300.500,214.500 L297.500,215.500 L298.500,216.500 ZM282.500,216.500 C282.976,217.073 282.836,217.177 284.500,217.500 C286.164,217.823 286.711,217.177 286.500,216.500 C286.289,215.823 282.024,215.927 282.500,216.500 Z"/>
<path fill-rule="evenodd"  fill="rgb(150, 190, 178)"
 d="M345.500,623.500 L342.500,643.500 L347.500,653.500 L356.500,657.500 L365.500,663.500 L371.500,662.500 L364.500,649.500 L363.500,639.500 L369.500,631.500 L370.500,628.500 L368.500,624.500 L364.500,620.500 L372.500,614.500 L372.500,609.500 L371.500,606.500 L372.500,604.500 L373.500,600.500 L377.500,596.500 L378.500,596.500 L381.500,595.500 L385.500,594.500 L388.500,593.500 L391.500,590.500 L392.500,589.500 L392.500,587.500 L392.500,585.500 L390.500,583.500 L390.500,581.500 L389.500,578.500 L387.500,575.500 L387.500,571.500 L391.500,563.500 L397.500,559.500 L406.500,550.500 L406.500,545.500 L396.500,551.500 L386.500,551.500 L385.500,541.500 L370.500,537.500 L363.500,538.500 L358.500,540.500 L355.500,537.500 L349.500,538.500 L347.500,548.500 L348.500,562.500 L344.500,582.500 L347.500,594.500 L343.500,606.500 L346.500,615.500 L345.500,623.500 Z"/>
</svg>
